X:213
L:1/8
M:2/4
K:F
 D | D ^C D =C | D3 C | D E F G | A3 A | A3/2 A/ G E | D(EF) G | A3/2 D/ D ^C | D3 F | A A A A | 
 d3 d | c B (Bc) | A3 A | d d c A | FGA B | A F D3/2 D/ | D3 G | A A =B ^c | (d2 A) A | 
 G3/2 G/ A B | A3 A | D3/2 E/ F G | A3 G | A D D ^C | D3 z |]

